public/icons/globe_icon.svg

<svg width="330" height="330" viewBox="0 0 330 330" fill="none" xmlns="http://www.w3.org/2000/svg">
<path d="M151.577 24.65C229.075 17.2405 297.912 74.0264 305.346 151.497C312.78 228.968 255.995 297.8 178.502 305.252C100.978 312.709 32.091 255.915 24.654 178.413C17.2181 100.912 74.0485 32.0629 151.577 24.65Z" fill="black"/>
<path d="M273.501 91.5995C274.592 91.776 274.193 91.5503 274.98 92.3011C277.247 94.4641 278.957 98.266 280.567 101.03C291.094 118.982 296.767 139.363 297.028 160.17L257.866 160.152C251.71 160.154 245.554 160.204 239.398 160.298C237.915 141.704 236.661 123.988 232.359 105.766C246.621 102.24 260.203 97.8895 273.501 91.5995Z" fill="#FECE00"/>
<path d="M238.777 169.42C258.175 168.996 277.679 169.396 297.087 169.401C296.815 189.99 290.097 211.042 280.23 228.954C278.422 232.212 276.266 235.339 274.273 238.491C261.041 231.212 246.765 227.36 232.179 223.795C236.092 205.525 238.3 188.102 238.777 169.42Z" fill="#FECE00"/>
<path d="M55.3822 91.4296C69.4258 97.0526 82.7284 101.925 97.4706 105.504C93.1217 123.648 91.6765 141.662 90.6315 160.226L75.0411 160.16L32.7314 160.122C33.0198 135.162 42.0931 112.225 55.3822 91.4296Z" fill="#FECE00"/>
<path d="M32.6885 169.406C51.9941 169.038 71.3801 169.379 90.6936 169.375C90.7092 187.527 93.2877 206.074 97.7785 223.64C93.8633 224.429 89.9906 225.589 86.1312 226.618C75.6284 229.43 65.1514 233.143 55.5516 238.28C41.7808 216.685 34.1482 195.054 32.6885 169.406Z" fill="#FECE00"/>
<path d="M106.614 107.14C124.413 111.027 142.127 112.404 160.313 112.962L160.264 160.229L154.448 160.161L99.7563 160.167C100.649 142.023 102.268 124.823 106.614 107.14Z" fill="#FECE00"/>
<path d="M220.575 107.895C221.34 107.723 222.193 107.699 222.974 107.613C223.076 107.702 223.191 107.777 223.279 107.881C227.285 112.599 229.567 151.98 229.801 160.192L179.191 160.163L169.751 160.172L169.698 112.924C186.949 112.101 203.547 111.011 220.575 107.895Z" fill="#FECE00"/>
<path d="M99.7207 169.33L160.392 169.424C160.175 179.316 160.313 189.261 160.371 199.156C160.403 204.582 160.77 210.193 160.113 215.576C158.801 216.518 157.921 216.266 156.332 216.279C139.73 216.3 122.851 218.451 106.666 222.029C102.438 204.769 100.109 187.098 99.7207 169.33Z" fill="#FECE00"/>
<path d="M169.773 169.351L229.846 169.383C229.246 185.625 227.67 200.89 224.264 216.798L222.822 222.193C205.394 218.561 187.665 216.566 169.866 216.232L169.773 169.351Z" fill="#FECE00"/>
<path d="M158.204 225.522L159.757 225.532C159.979 225.814 160.333 226.031 160.423 226.378C161.277 229.693 160.433 238.532 160.431 242.454L160.492 294.276C147.386 291.065 140.017 285.403 131.145 275.547C120.61 262.277 114.416 246.847 109.038 230.951C124.842 226.646 141.931 226.299 158.204 225.522Z" fill="#FECE00"/>
<path d="M169.867 35.3364C176.425 36.8324 182.277 39.1049 187.745 43.1091C201.731 53.3541 211.035 71.126 217.155 86.9807C218.501 90.4665 220.133 93.9155 220.713 97.6303C219.697 98.914 218.021 98.9374 216.451 99.2994C200.827 101.706 185.454 102.949 169.676 103.62C169.968 80.8706 169.731 58.0912 169.867 35.3364Z" fill="#FECE00"/>
<path d="M159.616 35.4894C159.846 35.7274 160.166 35.905 160.308 36.2044C161.098 37.8725 160.291 96.4392 160.282 103.66C144.909 103.821 129.199 101.819 114.067 99.2793L109.113 98.2436C113.263 85.4668 118.288 73.1805 125.747 61.9434C134.163 49.2649 144.141 38.6266 159.616 35.4894Z" fill="#FECE00"/>
<path d="M169.846 225.531C187.155 226.279 203.696 227.59 220.692 231.044C215.726 246.711 209.329 260.895 199.58 274.17C191.771 284.831 182.743 291.114 169.918 294.018L169.846 225.531Z" fill="#FECE00"/>
<path d="M99.82 232.549C102.176 235.485 103.57 243.439 104.947 247.287C111.041 264.315 121.614 280.689 135.101 292.735C125.019 290.472 115.947 287.17 106.624 282.778C89.2188 273.987 73.0047 261.067 61.0288 245.631C73.7424 239.961 86.3475 236.01 99.82 232.549Z" fill="#FECE00"/>
<path d="M229.82 232.664C243.289 235.827 256.357 239.585 268.718 245.886C256.589 261.468 240.975 273.029 223.798 282.432C214.233 287.048 204.498 290.384 194.244 293.091C212.874 278.744 222.64 254.248 229.82 232.664Z" fill="#FECE00"/>
<path d="M134.17 37.2323L134.386 37.4334L134.292 38.1652C116.763 52.9318 106.693 75.2408 100.067 96.6437C90.3403 94.2595 80.916 91.7603 71.5712 88.1371C68.0985 86.8478 64.6941 85.3127 61.2773 83.877C83.2888 58.0722 101.344 46.0831 134.17 37.2323Z" fill="#FECE00"/>
<path d="M196.264 37.734C225.973 43.8788 249.801 61.2664 269.022 84.0134C265.946 85.3843 262.767 86.5752 259.645 87.841C249.891 91.5581 240.093 94.2562 229.972 96.7935C224.386 74.3817 212.721 53.9451 196.264 37.734Z" fill="#FECE00"/>
</svg>

<svg xmlns="http://www.w3.org/2000/svg" width="330" height="330" fill="none" viewBox="0 0 330 330"><path fill="#000" d="M151.577 24.65c77.498-7.41 146.335 49.376 153.769 126.847S255.995 297.8 178.502 305.252c-77.524 7.457-146.411-49.337-153.848-126.839-7.436-77.501 49.395-146.35 126.923-153.763"/><path fill="#fece00" d="M273.501 91.6c1.091.176.692-.05 1.479.701 2.267 2.163 3.977 5.965 5.587 8.729a119.9 119.9 0 0 1 16.461 59.14l-39.162-.018q-9.234.004-18.468.146c-1.483-18.594-2.737-36.31-7.039-54.532 14.262-3.526 27.844-7.877 41.142-14.166m-34.724 77.82c19.398-.424 38.902-.024 58.31-.019-.272 20.589-6.99 41.641-16.857 59.553-1.808 3.258-3.964 6.385-5.957 9.537-13.232-7.279-27.508-11.131-42.094-14.696 3.913-18.27 6.121-35.693 6.598-54.375M55.382 91.43c14.044 5.623 27.346 10.495 42.089 14.074-4.35 18.144-5.794 36.158-6.84 54.722l-15.59-.066-42.31-.038c.289-24.96 9.362-47.897 22.651-68.692m-22.694 77.976c19.306-.368 38.692-.027 58.006-.031.015 18.152 2.594 36.699 7.084 54.265-3.915.789-7.787 1.949-11.647 2.978-10.503 2.812-20.98 6.525-30.58 11.662-13.77-21.595-21.403-43.226-22.863-68.874m73.926-62.266c17.799 3.887 35.513 5.264 53.699 5.822l-.049 47.267-5.816-.068-54.692.006c.893-18.144 2.512-35.344 6.858-53.027m113.961.755c.765-.172 1.618-.196 2.399-.282.102.089.217.164.305.268 4.006 4.718 6.288 44.099 6.522 52.311l-50.61-.029-9.44.009-.053-47.248c17.251-.823 33.849-1.913 50.877-5.029M99.72 169.33l60.672.094c-.217 9.892-.079 19.837-.021 29.732.032 5.426.399 11.037-.258 16.42-1.312.942-2.192.69-3.781.703-16.602.021-33.481 2.172-49.666 5.75a244 244 0 0 1-6.945-52.699m70.052.021 60.073.032c-.6 16.242-2.176 31.507-5.582 47.415l-1.442 5.395a286 286 0 0 0-52.956-5.961zm-11.569 56.171 1.553.01c.222.282.576.499.666.846.854 3.315.01 12.154.008 16.076l.061 51.822c-13.106-3.211-20.475-8.873-29.347-18.729-10.535-13.27-16.729-28.7-22.107-44.596 15.804-4.305 32.893-4.652 49.166-5.429m11.663-190.186c6.558 1.496 12.41 3.769 17.878 7.773 13.986 10.245 23.29 28.017 29.41 43.872 1.346 3.486 2.978 6.935 3.558 10.65-1.016 1.283-2.692 1.306-4.262 1.668-15.624 2.407-30.997 3.65-46.775 4.321.292-22.75.055-45.529.191-68.284m-10.251.154c.23.237.55.415.692.714.79 1.669-.017 60.235-.026 67.456-15.373.161-31.083-1.841-46.215-4.38l-4.954-1.036c4.15-12.777 9.175-25.064 16.634-36.3 8.416-12.68 18.394-23.317 33.869-26.455m10.23 190.042c17.309.748 33.85 2.059 50.846 5.513-4.966 15.667-11.363 29.851-21.112 43.126-7.809 10.661-16.837 16.944-29.662 19.848zm-70.026 7.018c2.356 2.936 3.75 10.89 5.127 14.738 6.094 17.028 16.667 33.402 30.154 45.448-10.082-2.263-19.154-5.565-28.477-9.957-17.405-8.791-33.62-21.711-45.595-37.147 12.713-5.67 25.318-9.621 38.791-13.082m130 .115c13.469 3.163 26.537 6.921 38.898 13.222-12.129 15.582-27.743 27.143-44.92 36.546-9.565 4.616-19.3 7.952-29.554 10.659 18.63-14.347 28.396-38.843 35.576-60.427M134.17 37.232l.216.201-.094.732c-17.529 14.767-27.599 37.076-34.225 58.479-9.727-2.385-19.151-4.884-28.496-8.507-3.472-1.29-6.877-2.824-10.294-4.26 22.012-25.805 40.067-37.794 72.893-46.645m62.094.502c29.709 6.145 53.537 23.532 72.758 46.28-3.076 1.37-6.255 2.561-9.377 3.827-9.754 3.717-19.552 6.415-29.673 8.953a125.5 125.5 0 0 0-33.708-59.06"/></svg>
